contributed-vectors/aethersx2custom.svg

<svg width="192" height="192" viewBox="0 0 192 192" fill="none" xmlns="http://www.w3.org/2000/svg">
<path d="M87.826 8.002C86.7072 8.02642 85.6061 8.28525 84.5936 8.76177L16.5936 40.7618C13.5511 42.1939 11.7288 45.3757 12.0331 48.7247L20.0331 136.725C20.2838 139.484 21.944 141.917 24.4218 143.156L104.422 183.156C107.405 184.647 110.999 184.132 113.443 181.863L169.443 129.863C170.881 128.528 171.779 126.711 171.965 124.758L179.965 40.7578C180.329 36.9196 177.904 33.3675 174.197 32.3086L90.1972 8.30857C89.4267 8.08818 88.6274 7.98481 87.8261 8.00193L87.826 8.002Z" fill="#F9C28C"/>
<g opacity="0.21427">
<path d="M87.826 8.002C86.7072 8.02642 85.6061 8.28525 84.5936 8.76177L16.5936 40.7618C14.9617 41.5299 13.698 42.8093 12.9081 44.3399L108 79.9999L179.459 37.1249C178.578 34.8449 176.678 33.0171 174.197 32.3085L90.1974 8.30847C89.4269 8.08808 88.6276 7.98471 87.8263 8.00183L87.826 8.002Z" fill="#F9C28C" fill-opacity="0.5"/>
<path d="M87.826 8.002C86.7072 8.02642 85.6061 8.28525 84.5936 8.76177L16.5936 40.7618C14.9617 41.5299 13.698 42.8093 12.9081 44.3399L108 79.9999L179.459 37.1249C178.578 34.8449 176.678 33.0171 174.197 32.3085L90.1974 8.30847C89.4269 8.08808 88.6276 7.98471 87.8263 8.00183L87.826 8.002Z" fill="#D3B69A" fill-opacity="0.3"/>
</g>
<g style="mix-blend-mode:luminosity">
<path d="M179.46 37.125L108.001 80V184C109.978 184 111.932 183.272 113.444 181.867L169.444 129.867C170.883 128.532 171.78 126.715 171.966 124.762L179.966 40.7617C180.086 39.4919 179.896 38.2562 179.46 37.1289L179.46 37.125Z" fill="#F8C18C"/>
<path d="M179.46 37.125L108.001 80V184C109.978 184 111.932 183.272 113.444 181.867L169.444 129.867C170.883 128.532 171.78 126.715 171.966 124.762L179.966 40.7617C180.086 39.4919 179.896 38.2562 179.46 37.1289L179.46 37.125Z" fill="#8E6F60" fill-opacity="0.05"/>
</g>
</svg>

<svg id="Layer_1" data-name="Layer 1" xmlns="http://www.w3.org/2000/svg" viewBox="0 0 192 192"><defs><style>.cls-1{fill:#f8c18c;}.cls-2{fill:#fff;isolation:isolate;}.cls-2,.cls-3{opacity:0.25;}</style></defs><path class="cls-1" d="M87.83,8a8.27,8.27,0,0,0-3.24.76l-68,32a8,8,0,0,0-4.56,8l8,88a8,8,0,0,0,4.39,6.44l80,40a8,8,0,0,0,9-1.3l56-52a7.94,7.94,0,0,0,2.52-5.1l8-84a8,8,0,0,0-5.76-8.45l-84-24A7.92,7.92,0,0,0,87.83,8Z"/><path class="cls-2" d="M87.83,8a8.27,8.27,0,0,0-3.24.76l-68,32a8,8,0,0,0-3.68,3.58L108,80l71.46-42.88a8,8,0,0,0-5.26-4.81l-84-24A7.92,7.92,0,0,0,87.83,8Z"/><path class="cls-3" d="M179.46,37.13,108,80V184a8,8,0,0,0,5.44-2.13l56-52a8,8,0,0,0,2.53-5.11l8-84a7.91,7.91,0,0,0-.51-3.63Z"/></svg>
